icons/domestic_worker_alt_fill.svg

<svg width="48" height="48" viewBox="0 0 48 48" fill="none" xmlns="http://www.w3.org/2000/svg">
<path d="M13 9.50024C13 11.4332 14.567 13.0002 16.5 13.0002C18.433 13.0002 20 11.4332 20 9.50024C20 7.56725 18.433 6.00024 16.5 6.00024C14.567 6.00024 13 7.56725 13 9.50024Z" fill="black"/>
<path fill-rule="evenodd" clip-rule="evenodd" d="M29.4489 16.0508C29.3046 16.0177 29.1543 16.0002 29 16.0002H20V28.0002H13V16.0002H12C8.68629 16.0002 6 18.6865 6 22.0002C6 24.9732 8.16229 27.4412 11 27.9173V40.0002C11 41.1048 11.8954 42.0002 13 42.0002C14.1046 42.0002 15 41.1048 15 40.0002L15 31.0002H18L18 40.0002C18 41.1048 18.8954 42.0002 20 42.0002C21.1046 42.0002 22 41.1048 22 40.0002V20.0002H29C29.4766 20.0002 29.9143 19.8335 30.2579 19.5552L32.256 28.2098C30.1035 28.7067 28.7614 30.8546 29.2583 33.0071L30.3086 42.0013L33.1323 41.3494L32.1025 36.4348L34.06 36.0246L35.0815 40.8994L42.001 39.3019L39.002 30.7576C38.5051 28.605 36.3573 27.2629 34.2048 27.7599L30.3806 11.1956C30.2563 10.6575 29.7194 10.3219 29.1813 10.4462C28.6431 10.5704 28.3076 11.1074 28.4318 11.6455L29.4489 16.0508ZM9 22.0002C9 20.8957 9.89543 20.0002 11 20.0002V24.0002C9.89543 24.0002 9 23.1048 9 22.0002ZM34.6547 29.7086L32.7059 30.1585C31.6297 30.407 30.9586 31.4809 31.2071 32.5572L37.0533 31.2075C36.8048 30.1312 35.7309 29.4602 34.6547 29.7086Z" fill="black"/>
<path d="M18 16.0002V19.0002H15V16.0002H18Z" fill="black"/>
</svg>

<svg
  xmlns="http://www.w3.org/2000/svg"
  width="24"
  height="24"
  viewBox="0 0 24 24"
  fill="none"
  stroke="currentColor"
  stroke-width="2"
  stroke-linecap="round"
  stroke-linejoin="round"
>
  <path d="M13 9.5a3.5 3.5 0 1 0 7 0 3.5 3.5 0 0 0-7 0" />
  <path
    fill-rule="evenodd"
    d="M29.449 16.05A2 2 0 0 0 29 16h-9v12h-7V16h-1a6 6 0 0 0-1 11.917V40a2 2 0 1 0 4 0v-9h3v9a2 2 0 1 0 4 0V20h7c.477 0 .914-.166 1.258-.445l1.998 8.655a4 4 0 0 0-2.998 4.797l1.05 8.994 2.824-.652-1.03-4.914 1.958-.41 1.021 4.874 6.92-1.597-2.999-8.544a4 4 0 0 0-4.797-2.998L30.38 11.196a1 1 0 0 0-1.95.45zM9 22a2 2 0 0 1 2-2v4a2 2 0 0 1-2-2m25.655 7.709-1.95.45a2 2 0 0 0-1.498 2.398l5.846-1.35a2 2 0 0 0-2.398-1.498"
    clip-rule="evenodd"
  />
  <path d="M18 16v3h-3v-3z" />
</svg>
